{ "compressionlevel":-1,
 "height":29,
 "infinite":false,
 "layers":[
        {
         "id":2,
         "image":"..\/textures\/Layers\/back.png",
         "imageheight":240,
         "imagewidth":384,
         "name":"far",
         "opacity":1,
         "parallaxx":0.2,
         "repeatx":true,
         "type":"imagelayer",
         "visible":true,
         "x":0,
         "y":0
        }, 
        {
         "id":3,
         "image":"..\/textures\/Layers\/middle.png",
         "imageheight":368,
         "imagewidth":176,
         "name":"mid",
         "offsetx":0,
         "offsety":96,
         "opacity":1,
         "parallaxx":0.6,
         "repeatx":true,
         "type":"imagelayer",
         "visible":true,
         "x":0,
         "y":0
        }],
 "nextlayerid":6,
 "nextobjectid":13,
 "orientation":"orthogonal",
 "renderorder":"right-down",
 "tiledversion":"1.11.2",
 "tileheight":16,
 "tilesets":[
        {
         "firstgid":1,
         "source":"tileset.tsj"
        }, 
        {
         "firstgid":576,
         "source":"actor.tsj"
        }, 
        {
         "firstgid":582,
         "source":"props.tsj"
        }],
 "tilewidth":16,
 "type":"map",
 "version":"1.10",
 "width":91
}